src/assets/Imgs/profileCom/mirror.svg

<svg fill="none" height="25" viewBox="0 0 25 25" width="25" xmlns="http://www.w3.org/2000/svg"><path d="m7.26406 9.22227c0-.175-.0875-.35001-.175-.4375l-1.3125-1.57501v-.26249h4.025l3.15004 6.91253 2.8-6.91253h3.85v.26249l-1.1375 1.05001c-.0875.0875-.175.175-.0875.35v7.87503c0 .0875 0 .2625.0875.35l1.05 1.05v.2625h-5.5125v-.2625l1.1375-1.1375c.0875-.0875.0875-.175.0875-.35v-6.3875l-3.15 7.9625h-.35l-3.67504-7.9625v5.3375c0 .2625.0875.4375.175.6125l1.4875 1.75v.2625h-4.1125v-.2625l1.4875-1.75c.175-.175.2625-.35.175-.6125z" fill="#1a1323"/></svg>

<svg width="25" height="25" viewBox="0 0 25 25" fill="none" xmlns="http://www.w3.org/2000/svg">
<g id="Dis">
<path id="medium" d="M7.26406 9.22227C7.26406 9.04727 7.17656 8.87226 7.08906 8.78477L5.77656 7.20976V6.94727H9.80156L12.9516 13.8598L15.7516 6.94727H19.6016V7.20976L18.4641 8.25977C18.3766 8.34727 18.2891 8.43477 18.3766 8.60977V16.4848C18.3766 16.5723 18.3766 16.7473 18.4641 16.8348L19.5141 17.8848V18.1473H14.0016V17.8848L15.1391 16.7473C15.2266 16.6598 15.2266 16.5723 15.2266 16.3973V10.0098L12.0766 17.9723H11.7266L8.05156 10.0098V15.3473C8.05156 15.6098 8.13906 15.7848 8.22656 15.9598L9.71406 17.7098V17.9723H5.60156V17.7098L7.08906 15.9598C7.26406 15.7848 7.35156 15.6098 7.26406 15.3473V9.22227Z" fill="#1A1323"/>
</g>
</svg>
